app/static/icons/vk.svg

<svg width="35" height="37" viewBox="0 0 35 37" fill="none" xmlns="http://www.w3.org/2000/svg">
<path fill-rule="evenodd" clip-rule="evenodd" d="M17.4953 0C7.83292 0 0 8.16698 0 18.2415C0 28.3159 7.83292 36.4829 17.4953 36.4829C27.1577 36.4829 34.9907 28.3159 34.9907 18.2415C34.9907 8.16698 27.1577 0 17.4953 0ZM18.9199 23.9997C18.7474 24.1893 18.4106 24.2276 18.4106 24.2276H17.2952C17.2952 24.2276 14.8344 24.379 12.6667 22.0697C10.3027 19.5503 8.21524 14.5517 8.21524 14.5517C8.21524 14.5517 8.09476 14.2238 8.22528 14.0659C8.37223 13.8875 8.77293 13.8763 8.77293 13.8763L11.439 13.8585C11.439 13.8585 11.69 13.9005 11.8699 14.036C12.0186 14.1481 12.1017 14.3564 12.1017 14.3564C12.1017 14.3564 12.5325 15.4718 13.103 16.4807C14.2174 18.4508 14.7359 18.8815 15.1137 18.6704C15.665 18.363 15.4998 15.8856 15.4998 15.8856C15.4998 15.8856 15.5099 14.987 15.2224 14.5862C14.9996 14.2761 14.5798 14.1855 14.3945 14.1602C14.2439 14.1397 14.4903 13.7828 14.8098 13.6231C15.2899 13.383 16.1369 13.369 17.1382 13.3793C17.9186 13.3877 18.1431 13.4372 18.448 13.5129C19.1555 13.6876 19.1334 14.2476 19.0858 15.4562C19.0715 15.8177 19.055 16.2372 19.055 16.7217C19.055 16.8306 19.0519 16.9466 19.0487 17.066C19.0321 17.6852 19.0132 18.3943 19.4118 18.6582C19.6163 18.7927 20.1156 18.6778 21.3651 16.5068C21.9575 15.4774 22.4011 14.2677 22.4011 14.2677C22.4011 14.2677 22.4987 14.0519 22.6493 13.9594C22.8036 13.8651 23.0117 13.894 23.0117 13.894L25.8175 13.8763C25.8175 13.8763 26.6608 13.7726 26.7968 14.163C26.9401 14.5713 26.4819 15.526 25.3355 17.0898C24.2456 18.5769 23.7165 19.1223 23.7678 19.6062C23.805 19.958 24.1489 20.2773 24.8071 20.9021C26.1851 22.2115 26.5545 22.9004 26.6432 23.066C26.6506 23.0797 26.656 23.0898 26.6599 23.0964C27.2778 24.1454 25.9744 24.2276 25.9744 24.2276L23.4818 24.2631C23.4818 24.2631 22.9469 24.3715 22.2423 23.8764C21.8731 23.6173 21.5124 23.1941 21.1689 22.7909C20.6443 22.1753 20.1596 21.6066 19.7459 21.7409C19.0513 21.967 19.0723 23.4981 19.0723 23.4981C19.0723 23.4981 19.0778 23.826 18.9199 23.9997Z" fill="#9A9A9A"/>
</svg>

<svg xmlns="http://www.w3.org/2000/svg" width="35" height="37" fill="none"><path fill-rule="evenodd" d="M17.495 0C7.833 0 0 8.167 0 18.242s7.833 18.24 17.495 18.24 17.495-8.167 17.495-18.24S27.158 0 17.495 0zm1.425 24c-.172.2-.51.228-.51.228h-1.115s-2.46.15-4.63-2.158c-2.364-2.52-4.45-7.518-4.45-7.518s-.12-.328.01-.486c.147-.178.548-.2.548-.2l2.666-.018s.25.042.43.178c.15.112.232.32.232.32a18.51 18.51 0 0 0 1.001 2.124c1.114 1.97 1.633 2.4 2.01 2.2.55-.307.386-2.785.386-2.785s.01-.9-.277-1.3c-.223-.3-.643-.4-.828-.426-.15-.02.096-.377.415-.537.48-.24 1.327-.254 2.328-.244.78.008 1.005.058 1.3.134.707.175.685.735.638 1.943-.014.36-.03.78-.03 1.265 0 .11-.003.225-.006.344-.017.62-.035 1.328.363 1.592.204.134.704.02 1.953-2.15.592-1.03 1.036-2.24 1.036-2.24s.098-.216.248-.308.362-.065.362-.065l2.806-.018s.843-.104.98.287c.143.408-.315 1.363-1.46 2.927-1.1 1.487-1.62 2.032-1.568 2.516.037.352.38.67 1.04 1.296 1.378 1.31 1.747 1.998 1.836 2.164l.017.03c.618 1.05-.686 1.13-.686 1.13l-2.493.036s-.535.108-1.24-.387c-.37-.26-.73-.682-1.073-1.085-.525-.616-1.01-1.184-1.423-1.05-.695.226-.674 1.757-.674 1.757s.006.328-.152.502z" fill="#9a9a9a"/></svg>
